assets/images/icons/parking.svg

<svg viewBox="0 0 50 50" xmlns="http://www.w3.org/2000/svg"><path d="m9 4c-2.7454545 0-5 2.2545455-5 5v32c0 2.745455 2.2545455 5 5 5h32c2.745455 0 5-2.254545 5-5v-32c0-2.7454545-2.254545-5-5-5zm0 2h32c1.654545 0 3 1.3454545 3 3v32c0 1.654545-1.345455 3-3 3h-32c-1.6545455 0-3-1.345455-3-3v-32c0-1.6545455 1.3454545-3 3-3zm8 8v22h4v-8h8c3.309 0 6-2.691 6-6v-2c0-3.309-2.691-6-6-6h-8-2zm4 4h8c1.103 0 2 .897 2 2v2c0 1.103-.897 2-2 2h-8z" fill="#d59567"/></svg>

<?xml version="1.0" encoding="UTF-8"?>


<svg xmlns="http://www.w3.org/2000/svg" viewBox="0 0 50 50" version="1.1">
<g id="surface1" fill="#D59567">
<path style="" d="M 9 4 C 6.2545455 4 4 6.2545455 4 9 L 4 41 C 4 43.745455 6.2545455 46 9 46 L 41 46 C 43.745455 46 46 43.745455 46 41 L 46 9 C 46 6.2545455 43.745455 4 41 4 L 9 4 z M 9 6 L 41 6 C 42.654545 6 44 7.3454545 44 9 L 44 41 C 44 42.654545 42.654545 44 41 44 L 9 44 C 7.3454545 44 6 42.654545 6 41 L 6 9 C 6 7.3454545 7.3454545 6 9 6 z M 17 14 L 17 36 L 21 36 L 21 28 L 29 28 C 32.309 28 35 25.309 35 22 L 35 20 C 35 16.691 32.309 14 29 14 L 21 14 L 19 14 L 17 14 z M 21 18 L 29 18 C 30.103 18 31 18.897 31 20 L 31 22 C 31 23.103 30.103 24 29 24 L 21 24 L 21 18 z"/>
</g>
</svg>
